public/illustrations/dataset.svg

<svg width="315" height="243" viewBox="0 0 315 243" fill="none" xmlns="http://www.w3.org/2000/svg">
<path d="M28.7542 38.7131C29.0232 34.7346 29.0799 30.9683 29.3064 27.1313C29.5613 22.3882 31.0479 20.8307 35.9893 20.5617C40.4351 20.406 44.9234 20.1229 49.8081 19.9813C49.9214 15.6347 50.2895 11.4011 50.1763 7.26678C50.0913 2.24048 51.7194 0.286655 56.9581 0.428241C71.3292 0.810523 85.7711 1.36274 100.1 1.87245L190.673 5.00144C196.039 5.1855 197.681 6.87045 197.766 12.3357C198.021 25.4324 198.446 38.4299 198.701 51.5266C198.771 52.1495 198.828 52.7867 198.97 54.0468C200.258 53.0133 201.32 52.2062 202.24 51.3425C221.043 35.3858 239.846 19.4432 258.507 3.42986C264.468 -1.59645 269.112 -1.07259 273.996 4.83154C286.966 20.7033 299.793 36.5327 312.621 52.3479C314.759 55.1088 314.872 57.2608 312.536 59.866C311.743 60.7722 310.865 61.5085 309.988 62.2447C279.773 88.1408 249.544 114.037 219.188 139.876C215.762 142.977 212.038 145.667 208.187 148.315C206.403 149.462 203.883 149.731 201.207 150.396C200.796 156.739 200.428 163.408 199.932 170.02C199.564 176.689 199.069 182.848 198.8 189.247C198.8 190.904 198.375 192.419 197.695 193.82C197.016 195.236 196.081 196.539 194.779 197.573C193.306 198.691 191.395 199.328 189.611 199.271C185.306 199.47 181.186 199.158 176.981 199.088C176.089 199.059 175.141 199.158 174.065 199.201C173.498 203.972 172.79 208.701 172.125 213.289C171.275 219.617 169.647 221.132 163.148 221.118C159.07 221.118 154.965 220.778 150.887 220.778C150.122 220.793 149.499 220.863 148.82 221.062C148.565 225.805 148.352 230.406 148.013 234.965C148.013 236.622 147.673 238.307 147.121 239.779C145.761 242.597 142.93 242.894 140.197 242.937C131.065 242.696 121.989 242.328 112.857 242.101L10.5037 238.958C9.30019 238.958 8.13914 238.831 7.10556 238.746C3.18361 238.335 2.23508 237.231 1.01744 233.606C0.153761 230.265 -0.214371 226.796 0.125437 223.454C2.03686 166.126 3.934 108.812 5.84542 51.4842C5.87373 49.3746 6.08616 47.1941 6.42597 45.0562C7.07727 40.4688 8.88949 38.8688 13.5902 38.8122C17.8519 38.7414 22.0147 38.9255 26.2623 38.8547C26.8852 38.7839 27.6499 38.7697 28.7825 38.5856L28.7259 38.7131H28.7542ZM164.012 84.0772C171.728 77.5925 179.36 70.9098 187.02 64.5526C187.671 64.0429 188.096 63.2924 188.393 62.4995C188.69 61.7066 188.86 60.8571 188.705 60.0501C188.393 46.3304 188.067 32.6108 187.756 18.8911C187.756 17.6876 187.614 16.4275 187.487 15.1674L60.4129 10.6507C58.5157 69.1823 56.5901 126.949 54.6079 185.311L188.747 189.148C189.526 176.136 190.29 163.578 191.097 150.878L175.778 152.265C167.325 153.044 158.872 153.808 150.434 154.587C144.685 155.012 141.146 151.118 142.363 145.837C143.609 139.65 145.124 133.576 146.639 127.487C148.126 121.088 149.556 114.83 150.986 108.557C142.406 102.781 140.098 96.027 143.807 88.4946C147.276 81.6277 153.506 80.3253 164.21 84.0207L164.026 84.1055L164.012 84.0772ZM15.799 49.1339C15.6149 55.7176 15.5159 62.0324 15.3035 68.2905C13.6752 119.219 12.0894 170.006 10.3196 220.892C10.2205 223.582 10.3197 226.173 10.3905 228.778L137.847 232.686C138.144 228.254 138.314 224.545 138.455 220.524C136.671 220.467 135.242 220.226 133.896 220.184C113.947 219.391 93.884 218.853 73.8495 217.862C58.7422 217.055 43.6067 217.904 28.5985 215.172C24.6341 214.45 22.5952 212.623 22.4253 208.63C22.3404 206.025 22.3828 203.477 22.5669 200.971C24.4075 151.939 26.2906 102.767 28.2445 53.7779C28.3436 52.3054 28.301 50.7762 28.3152 49.1197L15.9547 49.0346L15.7707 49.1197L15.799 49.1339ZM39.1608 30.6568C38.8351 38.4016 38.6651 45.7358 38.3678 53.0275C36.4139 102.781 34.6582 152.449 32.7044 202.188C32.6052 206.082 32.7044 206.266 36.2724 206.393C77.2617 207.937 118.237 209.494 159.085 210.981C160.118 211.066 161.109 210.825 162.185 210.782L163.545 199.045C161.803 198.847 160.642 198.719 159.297 198.677C140.763 198.111 122.187 197.672 103.526 197.049C85.4029 196.624 67.3931 196.256 49.3975 195.888C48.194 195.888 46.9905 195.449 46.0844 194.656C45.1782 193.863 44.541 192.716 44.3994 191.456C44.187 190.012 44.2296 188.667 44.3287 187.194C44.7818 171.804 45.3764 156.456 45.8295 141.051C47.0046 105.527 48.2224 69.862 49.4542 34.1965C49.4966 32.8514 49.4117 31.4638 49.3268 30.0763L39.3732 30.4444L39.1466 30.6568H39.1608ZM278.201 26.3527L182.163 109.138L192.06 120.691C224.03 93.3369 255.958 66.1099 287.985 38.6281L278.201 26.3667V26.3527ZM294.116 46.0472C262.216 73.5857 230.558 100.912 198.856 128.365L206.686 137.342C238.656 109.987 270.23 82.9304 302.016 55.6609L294.116 46.0614V46.0472ZM175.395 101.322L271.759 18.5088C269.706 15.9319 267.724 13.525 265.671 10.9482C233.092 38.6848 200.994 65.9967 168.783 93.5635L175.41 101.322H175.395ZM163.502 103.234L162.638 103.517C161.208 109.789 159.778 116.047 158.391 122.178C158.278 122.886 158.603 123.622 158.986 124.217C163.276 129.739 167.424 135.218 171.757 140.627C172.054 141.037 172.408 141.32 172.889 141.646L174.22 142.142C181.045 141.674 187.968 140.924 195.472 140.259L163.375 103.191L163.502 103.234Z" fill="#102185"/>
<path d="M101.969 101.266C101.332 102.993 100.369 104.749 99.1086 106.094C97.8485 107.439 96.3335 108.685 94.507 109.52C92.6806 110.356 90.8825 110.738 89.0418 110.809C87.2012 110.879 85.1908 110.582 83.4776 109.945C79.6831 108.373 76.6954 105.443 75.2088 101.719C73.5947 97.9385 73.4673 93.8183 74.8548 90.1087C77.6299 82.6754 85.7146 78.4421 92.5957 81.472C100.935 85.04 105.169 91.9068 101.926 101.421L101.983 101.294L101.969 101.266ZM87.0031 100.062C88.065 100.459 89.141 100.402 90.1888 100.034C91.2365 99.6658 92.0293 98.7597 92.3691 97.8252C93.2044 95.574 91.817 92.0202 89.8206 91.284C88.7587 90.8876 87.626 91.0716 86.5924 91.4397C85.5588 91.8078 84.7517 92.7139 84.4119 93.6484C83.973 94.8377 84.0581 96.2393 84.5536 97.3296C85.0067 98.5614 85.8704 99.4817 87.0172 100.062H87.0031Z" fill="#102185"/>
<path d="M109.983 90.3493C111.314 86.7672 114.146 84.0486 117.615 82.4629C121.083 80.8771 125.019 80.8489 128.644 82.0524C132.226 83.3833 135.185 86.0026 136.757 89.4715C138.343 92.9262 138.697 96.8481 137.479 100.473C136.148 104.055 133.217 107.042 129.748 108.614C126.237 110.327 122.244 110.497 118.535 109.109C116.68 108.416 115.052 107.509 113.622 106.065C112.192 104.621 111.087 103.149 110.195 101.464C109.36 99.6373 108.978 97.8392 108.964 95.8712C108.949 93.9031 109.19 92.0201 110.011 90.2219L109.969 90.3493H109.983ZM127.582 96.6215C127.78 96.0976 127.979 95.5596 127.865 95.0641C127.795 94.4411 127.681 93.9314 127.384 93.5208C127.129 92.9686 126.832 92.558 126.35 92.2323C125.869 91.9067 125.388 91.567 124.991 91.4254C123.929 91.0289 122.669 91.1704 121.621 91.5244C120.531 92.02 119.738 92.9403 119.342 94.0022C119.144 94.526 118.945 95.064 119.059 95.5596C119.172 96.0551 119.243 96.6924 119.54 97.103C119.795 97.6552 120.092 98.0657 120.574 98.3913C121.055 98.7169 121.409 99.0002 121.933 99.1984C122.457 99.3967 122.995 99.5948 123.618 99.5241C124.241 99.4533 124.75 99.3401 125.288 99.0852C125.826 98.8304 126.251 98.533 126.718 98.1082C127.044 97.6268 127.384 97.1453 127.582 96.6215Z" fill="#102185"/>
<path d="M156.791 45.1133C166.249 48.9503 168.811 57.4595 166.107 65.5157C165.47 67.2431 164.55 68.8713 163.431 70.2588C162.171 71.6039 160.699 72.7224 159.056 73.4587C157.414 74.2091 155.559 74.7189 153.718 74.7897C151.878 74.8605 150.009 74.6197 148.281 73.9684C140.99 71.2499 137.068 61.9195 139.857 54.0473C142.264 46.7839 150.065 42.8904 156.748 45.2407L156.791 45.1133ZM156.281 61.8487C157.272 59.201 156.139 55.7464 154.016 54.9535C151.892 54.1606 150.419 55.279 149.584 57.5303C149.145 58.7196 149.088 60.0646 149.414 61.2398C149.867 62.4716 150.674 63.5194 151.821 64.0999C153.817 64.8361 155.446 64.0999 156.295 61.8345L156.281 61.8487Z" fill="#102185"/>
<path d="M85.6012 134.595L77.5023 138.064C76.412 138.56 75.4494 139.112 74.2742 139.423C73.2265 139.792 72.0229 139.791 70.8336 139.353C69.7717 138.956 68.908 138.036 68.3558 137.073C68.101 136.521 67.8602 135.983 67.7894 135.346C67.7187 134.723 67.7895 134.142 67.8461 133.562C68.0444 133.038 68.2851 132.372 68.6249 131.891C68.9647 131.41 69.5452 131.027 69.9699 130.73C75.8599 127.488 82.0189 124.344 88.1638 121.654C91.9441 120.04 95.3422 122.674 95.5971 126.851C95.7528 130.079 95.5405 133.477 95.5122 136.79C95.4131 140.684 95.2432 144.393 95.1441 148.287C95.1441 149.49 95.0166 150.651 94.7476 151.77C94.4786 152.888 93.9121 154.021 92.8927 154.7C92.0149 155.437 90.8399 155.748 89.6788 155.621C88.5178 155.493 87.4559 155.097 86.5922 154.162C85.686 153.37 85.1763 152.279 85.1763 151.062C85.063 149.349 85.0771 147.692 85.0913 146.035C85.1338 142.269 85.3603 138.432 85.4594 134.539L85.587 134.581L85.6012 134.595Z" fill="#102185"/>
<path d="M86.6771 57.6148C83.7038 59.5262 81.3109 61.0553 78.9322 62.5844C77.927 63.2641 76.7801 63.9012 75.5483 64.3401C74.5006 64.7082 73.2971 64.7082 72.2352 64.3117C71.1733 63.9153 70.3945 63.1649 69.7149 62.1596C69.1627 61.1968 68.9787 60.0784 69.0637 59.0448C69.1911 57.8838 69.8565 56.9209 70.6069 56.1422C71.1166 55.5759 71.7679 55.0661 72.3626 54.6838C77.3181 51.5406 82.1746 48.2275 87.2575 45.1268C92.567 41.8278 97.2394 44.3198 97.1969 50.4929C97.1545 56.6661 96.7722 62.5702 96.5173 68.5168C96.4324 69.5504 96.0927 70.4707 95.6962 71.5326C95.3564 72.4671 94.7333 73.2884 93.9545 73.7556C93.1333 74.3503 92.1281 74.5909 91.1512 74.3785C90.0751 74.4351 89.1406 74.0811 88.3194 73.4723C87.4841 72.8635 86.946 71.9008 86.7053 70.9097C86.4221 68.8425 86.3655 66.5488 86.3939 64.4533C86.4222 62.3437 86.5921 60.2907 86.5496 57.5581L86.6771 57.6148Z" fill="#102185"/>
<path d="M121.054 132.726C118.01 134 115.646 135.09 113.239 135.855C109.798 136.988 107.094 136.124 105.975 133.448C104.814 130.899 106.032 128.025 109.175 126.482C113.55 124.485 118.095 122.404 122.64 120.776C127.227 119.006 130.824 121.116 130.923 126.128C130.923 133.391 130.314 140.711 129.875 147.96C129.861 148.413 129.79 148.994 129.592 149.518C129.196 150.58 128.672 151.585 127.652 152.265C126.647 152.944 125.599 153.312 124.438 153.185C123.277 153.057 122.272 152.519 121.352 151.727C120.615 150.849 120.12 149.758 120.12 148.541C120.12 144.916 120.474 141.122 120.785 137.455C120.884 135.982 120.927 134.637 121.097 132.584L121.054 132.712V132.726Z" fill="#102185"/>
<path d="M119.044 54.7402C116.58 56.0853 114.612 57.3171 112.474 58.1808C111.073 58.7188 109.289 59.4125 108.099 58.9594C106.513 58.3648 105.211 56.9773 104.418 55.4623C104.007 54.5561 103.951 53.4802 104.305 52.5457C104.659 51.6112 105.267 50.79 106.174 50.3652C111.2 47.4061 116.184 44.5884 121.338 42.1248C124.297 40.6665 127.242 42.5072 128.289 45.7779C128.941 47.6893 129.224 49.7564 129.323 51.9085C129.323 56.7507 129.026 61.6212 128.842 66.5484C128.743 66.8174 128.856 67.3131 128.714 67.7095C128.587 68.8705 127.879 69.9607 127.072 70.881C126.152 71.7447 124.92 72.1977 123.716 72.1977C122.513 72.1977 121.309 71.7588 120.403 70.9659C119.497 70.173 119.044 68.9413 118.902 67.6812C118.633 65.1609 118.86 62.5275 118.902 59.979L118.945 55.0093L119.044 54.7402Z" fill="#102185"/>
</svg>

<svg xmlns="http://www.w3.org/2000/svg" width="315" height="243" fill="none" viewBox="0 0 315 243"><path fill="#102185" d="M28.754 38.713c.27-3.978.326-7.745.552-11.582.255-4.743 1.742-6.3 6.683-6.57 4.446-.155 8.934-.438 13.82-.58.112-4.346.48-8.58.367-12.714C50.091 2.24 51.72.287 56.958.428c14.371.383 28.813.935 43.142 1.444l90.573 3.13c5.366.184 7.008 1.868 7.093 7.334.255 13.096.68 26.094.935 39.19.07.624.127 1.26.269 2.52 1.288-1.033 2.35-1.84 3.27-2.703 18.803-15.957 37.606-31.9 56.267-47.913 5.961-5.026 10.605-4.503 15.489 1.402 12.97 15.871 25.797 31.7 38.625 47.516 2.138 2.76 2.251 4.913-.085 7.518-.793.906-1.671 1.642-2.548 2.379-30.215 25.896-60.444 51.792-90.8 77.631-3.426 3.101-7.15 5.791-11.001 8.439-1.784 1.147-4.304 1.416-6.98 2.081-.411 6.343-.779 13.012-1.275 19.624-.368 6.669-.863 12.828-1.132 19.227 0 1.657-.425 3.172-1.105 4.573-.679 1.416-1.614 2.719-2.916 3.753-1.473 1.118-3.384 1.755-5.168 1.698-4.305.199-8.425-.113-12.63-.183-.892-.029-1.84.07-2.916.113-.567 4.771-1.275 9.5-1.94 14.088-.85 6.328-2.478 7.843-8.977 7.829-4.078 0-8.183-.34-12.261-.34-.765.015-1.388.085-2.067.284-.255 4.743-.468 9.344-.807 13.903 0 1.657-.34 3.342-.892 4.814-1.36 2.818-4.191 3.115-6.924 3.158-9.132-.241-18.208-.609-27.34-.836l-102.353-3.143c-1.204 0-2.365-.127-3.398-.212-3.922-.411-4.87-1.515-6.089-5.14-.863-3.341-1.231-6.81-.892-10.152 1.912-57.328 3.809-114.642 5.72-171.97.029-2.11.241-4.29.581-6.428.651-4.587 2.463-6.187 7.164-6.244 4.262-.07 8.425.114 12.672.043.623-.071 1.388-.085 2.52-.27l-.056.128zm135.258 45.364c7.716-6.484 15.348-13.167 23.008-19.524.651-.51 1.076-1.26 1.373-2.053s.467-1.643.312-2.45c-.312-13.72-.638-27.44-.949-41.159 0-1.203-.142-2.463-.269-3.724L60.413 10.651c-1.897 58.531-3.823 116.298-5.805 174.66l134.139 3.837c.779-13.012 1.543-25.57 2.35-38.27l-15.319 1.387c-8.453.779-16.906 1.543-25.344 2.322-5.749.425-9.288-3.469-8.071-8.75 1.246-6.187 2.761-12.261 4.276-18.35a4597 4597 0 0 0 4.347-18.93c-8.58-5.776-10.888-12.53-7.179-20.062 3.469-6.867 9.699-8.17 20.403-4.474l-.184.085zM15.799 49.134c-.184 6.584-.283 12.898-.495 19.156-1.629 50.929-3.215 101.716-4.984 152.602-.1 2.69 0 5.281.07 7.886l127.457 3.908c.297-4.432.467-8.141.608-12.162-1.784-.057-3.213-.298-4.559-.34-19.949-.793-40.012-1.331-60.046-2.322-15.108-.807-30.243.042-45.251-2.69-3.965-.722-6.004-2.549-6.174-6.542a72 72 0 0 1 .142-7.659 62964 62964 0 0 1 5.677-147.193c.1-1.473.057-3.002.071-4.658l-12.36-.085-.184.085zm23.362-18.477c-.326 7.745-.496 15.079-.793 22.37-1.954 49.754-3.71 99.422-5.664 149.161-.099 3.894 0 4.078 3.568 4.205 40.99 1.544 81.965 3.101 122.813 4.588 1.033.085 2.024-.156 3.1-.199l1.36-11.737c-1.742-.198-2.903-.326-4.248-.368-18.534-.566-37.11-1.005-55.771-1.628-18.123-.425-36.133-.793-54.128-1.161a5.08 5.08 0 0 1-3.314-1.232 5.04 5.04 0 0 1-1.685-3.2c-.212-1.444-.17-2.789-.07-4.262.453-15.39 1.047-30.738 1.5-46.143a73459 73459 0 0 1 3.625-106.854c.043-1.346-.042-2.733-.127-4.12l-9.954.367-.226.213zm239.04-4.304-96.038 82.785 9.897 11.553c31.97-27.354 63.898-54.581 95.925-82.063l-9.784-12.261zm15.915 19.694c-31.9 27.539-63.558 54.865-95.26 82.318l7.83 8.977a95873 95873 0 0 0 95.33-81.681l-7.9-9.6zm-118.721 55.275 96.364-82.813c-2.053-2.577-4.035-4.984-6.088-7.56-32.579 27.736-64.677 55.048-96.888 82.615l6.627 7.758zm-11.893 1.912-.864.283c-1.43 6.272-2.86 12.53-4.247 18.661-.113.708.212 1.444.595 2.039 4.29 5.522 8.438 11.001 12.771 16.41.297.41.651.693 1.132 1.019l1.331.496c6.825-.468 13.748-1.218 21.252-1.883l-32.097-37.068z"/><path fill="#102185" d="M101.969 101.266c-.637 1.727-1.6 3.483-2.86 4.828s-2.775 2.591-4.602 3.426a14.2 14.2 0 0 1-5.465 1.289c-1.84.07-3.851-.227-5.564-.864-3.795-1.572-6.783-4.502-8.27-8.226-1.613-3.78-1.74-7.9-.353-11.61 2.775-7.434 10.86-11.667 17.74-8.637 8.34 3.568 12.574 10.435 9.331 19.949l.057-.127zm-14.966-1.204c1.062.397 2.138.34 3.186-.028s1.84-1.274 2.18-2.209c.835-2.251-.552-5.805-2.548-6.541-1.062-.396-2.195-.212-3.229.156-1.033.368-1.84 1.274-2.18 2.208-.439 1.19-.354 2.591.142 3.682.453 1.231 1.316 2.152 2.463 2.732zM109.983 90.35c1.331-3.583 4.163-6.301 7.632-7.887s7.404-1.614 11.029-.41c3.582 1.33 6.541 3.95 8.113 7.419 1.586 3.454 1.94 7.376.722 11.001-1.331 3.582-4.262 6.569-7.731 8.141-3.511 1.713-7.504 1.883-11.213.495-1.855-.693-3.483-1.6-4.913-3.044s-2.535-2.916-3.427-4.601a13.3 13.3 0 0 1-1.231-5.593c-.015-1.968.226-3.85 1.047-5.65l-.042.128zm17.599 6.272c.198-.524.397-1.062.283-1.558-.07-.623-.184-1.133-.481-1.543-.255-.552-.552-.963-1.034-1.289-.481-.325-.962-.665-1.359-.807-1.062-.396-2.322-.255-3.37.1-1.09.495-1.883 1.415-2.279 2.477-.198.524-.397 1.062-.283 1.558.113.495.184 1.132.481 1.543.255.552.552.963 1.034 1.288.481.326.835.61 1.359.807.524.199 1.062.397 1.685.326.623-.07 1.132-.184 1.67-.439a5.6 5.6 0 0 0 1.43-.977c.326-.481.666-.963.864-1.487M156.791 45.113c9.458 3.837 12.02 12.346 9.316 20.403a17 17 0 0 1-2.676 4.743c-1.26 1.345-2.732 2.463-4.375 3.2-1.642.75-3.497 1.26-5.338 1.33-1.84.072-3.709-.17-5.437-.82-7.291-2.72-11.213-12.05-8.424-19.922 2.407-7.263 10.208-11.157 16.891-8.806zm-.51 16.736c.991-2.648-.142-6.103-2.265-6.895-2.124-.793-3.597.325-4.432 2.576-.439 1.19-.496 2.535-.17 3.71.453 1.232 1.26 2.28 2.407 2.86 1.996.736 3.625 0 4.474-2.265zM85.601 134.595l-8.099 3.469c-1.09.496-2.053 1.048-3.228 1.359-1.047.369-2.251.368-3.44-.07-1.062-.397-1.926-1.317-2.478-2.28-.255-.552-.496-1.09-.567-1.727-.07-.623 0-1.204.057-1.784.198-.524.44-1.19.779-1.671.34-.481.92-.864 1.345-1.161 5.89-3.242 12.049-6.386 18.194-9.076 3.78-1.614 7.178 1.02 7.433 5.197.156 3.228-.056 6.626-.085 9.939-.099 3.894-.269 7.603-.368 11.497a14.9 14.9 0 0 1-.396 3.483c-.27 1.118-.836 2.251-1.855 2.93-.878.737-2.053 1.048-3.214.921-1.161-.128-2.223-.524-3.087-1.459a4.06 4.06 0 0 1-1.416-3.1c-.113-1.713-.099-3.37-.085-5.027.043-3.766.27-7.603.368-11.496l.128.042zM86.677 57.615c-2.973 1.911-5.366 3.44-7.745 4.97-1.005.68-2.152 1.316-3.384 1.755a4.93 4.93 0 0 1-3.313-.028c-1.062-.397-1.84-1.147-2.52-2.152-.552-.963-.736-2.082-.651-3.115.127-1.161.793-2.124 1.543-2.903.51-.566 1.16-1.076 1.756-1.458 4.955-3.143 9.812-6.456 14.894-9.557 5.31-3.3 9.982-.807 9.94 5.366-.043 6.173-.425 12.077-.68 18.024-.085 1.033-.424 1.954-.82 3.016-.34.934-.964 1.755-1.743 2.223-.82.594-1.826.835-2.803.623-1.076.056-2.01-.298-2.832-.907-.835-.608-1.373-1.571-1.614-2.562-.283-2.067-.34-4.361-.311-6.457.028-2.11.198-4.162.156-6.895zM121.054 132.726c-3.044 1.274-5.408 2.364-7.815 3.129-3.441 1.133-6.145.269-7.264-2.407-1.161-2.549.057-5.423 3.2-6.966 4.375-1.997 8.92-4.078 13.465-5.706 4.587-1.77 8.184.34 8.283 5.352 0 7.263-.609 14.583-1.048 21.832-.014.453-.085 1.034-.283 1.558-.396 1.062-.92 2.067-1.94 2.747-1.005.679-2.053 1.047-3.214.92-1.161-.128-2.166-.666-3.086-1.458-.737-.878-1.232-1.969-1.232-3.186 0-3.625.354-7.419.665-11.086.099-1.473.142-2.818.312-4.871l-.043.128zM119.044 54.74c-2.464 1.345-4.432 2.577-6.57 3.44-1.401.539-3.185 1.233-4.375.78-1.586-.595-2.888-1.983-3.681-3.498-.411-.906-.467-1.982-.113-2.916.354-.935.962-1.756 1.869-2.18 5.026-2.96 10.01-5.778 15.164-8.241 2.959-1.459 5.904.382 6.951 3.653.652 1.911.935 3.978 1.034 6.13 0 4.843-.297 9.713-.481 14.64-.099.27.014.765-.128 1.162-.127 1.16-.835 2.25-1.642 3.171a4.94 4.94 0 0 1-3.356 1.317 5.08 5.08 0 0 1-3.313-1.232c-.906-.793-1.359-2.025-1.501-3.285-.269-2.52-.042-5.153 0-7.702l.043-4.97z"/></svg>
